sources/design/Outline/ring.svg

<svg:svg xmlns:cc="http://creativecommons.org/ns#" xmlns:dc="http://purl.org/dc/elements/1.1/" xmlns:inkscape="http://www.inkscape.org/namespaces/inkscape" xmlns:rdf="http://www.w3.org/1999/02/22-rdf-syntax-ns#" xmlns:sodipodi="http://sodipodi.sourceforge.net/DTD/sodipodi-0.dtd" xmlns:svg="http://www.w3.org/2000/svg" xml:space="preserve" width="1000" height="1000" version="1.1" style="clip-rule:evenodd;fill-rule:evenodd;image-rendering:optimizeQuality;shape-rendering:geometricPrecision;text-rendering:geometricPrecision" viewBox="0 0 1000 1000" id="svg10" sodipodi:docname="ring.svg" inkscape:version="1.1.1 (3bf5ae0d25, 2021-09-20)"><svg:text text-anchor="middle" x="113.15622" y="104.99826" id="top" inkscape:label="top" style="clip-rule:evenodd;fill-rule:evenodd;image-rendering:optimizeQuality;shape-rendering:geometricPrecision;text-rendering:geometricPrecision">✛</svg:text><svg:metadata id="metadata14"><rdf:RDF><cc:Work rdf:about=""><dc:format>image/svg+xml</dc:format><dc:type rdf:resource="http://purl.org/dc/dcmitype/StillImage" /><dc:title /></cc:Work></rdf:RDF></svg:metadata><sodipodi:namedview pagecolor="#ffffff" bordercolor="#666666" borderopacity="1" objecttolerance="10" gridtolerance="10" guidetolerance="10" inkscape:pageopacity="0" inkscape:pageshadow="2" inkscape:window-width="1920" inkscape:window-height="1009" id="namedview12" showgrid="false" inkscape:zoom="0.84890884" inkscape:cx="198.4901" inkscape:cy="54.187208" inkscape:window-x="0" inkscape:window-y="60" inkscape:window-maximized="1" inkscape:current-layer="g874" showguides="true" inkscape:guide-bbox="true" inkscape:document-rotation="0" inkscape:pagecheckerboard="0"><sodipodi:guide position="0,1000" orientation="0,1" id="guide16" inkscape:label="" inkscape:locked="true" inkscape:color="rgb(0,0,255)" /><sodipodi:guide position="1763.3122,2036.1693" orientation="1000,0" id="guide18" /><sodipodi:guide position="0,200" orientation="0,1" id="guide20" inkscape:label="base" inkscape:locked="true" inkscape:color="rgb(0,0,255)" /><inkscape:grid type="xygrid" id="grid24" originx="-473.37552" originy="-489.69235" /><sodipodi:guide position="0,0" orientation="0,1" id="guide34" inkscape:label="bottom" inkscape:locked="true" inkscape:color="rgb(0,0,255)" /><sodipodi:guide position="225.05109,1693.3186" orientation="0,1" id="guide44" inkscape:label="" inkscape:locked="false" inkscape:color="rgb(0,0,255)" /><sodipodi:guide position="0,900" orientation="0,1" id="guide46" inkscape:label="" inkscape:locked="true" inkscape:color="rgb(0,0,255)" /><sodipodi:guide position="227.46909,957.04245" orientation="1,0" id="guide841" inkscape:label="width" />    </sodipodi:namedview>
 <svg:defs id="defs4"><inkscape:path-effect effect="spiro" id="path-effect909" is_visible="true" lpeversion="1" /><inkscape:path-effect effect="spiro" id="path-effect869" is_visible="true" lpeversion="1" /><inkscape:path-effect effect="spiro" id="path-effect881" is_visible="true" lpeversion="1" /><inkscape:path-effect effect="spiro" id="path-effect862" is_visible="true" lpeversion="1" /><inkscape:path-effect effect="spiro" id="path-effect851" is_visible="true" lpeversion="1" />
  <svg:style type="text/css" id="style2">
   
    .fil0 {fill:#EF7F1A;fill-rule:nonzero}
   
  </svg:style>
 <inkscape:path-effect effect="spiro" id="path-effect1214" is_visible="true" lpeversion="1" /><inkscape:path-effect effect="spiro" id="path-effect1195" is_visible="true" lpeversion="1" /><inkscape:path-effect effect="spiro" id="path-effect992" is_visible="true" lpeversion="1" /><inkscape:path-effect effect="spiro" id="path-effect1060" is_visible="true" lpeversion="1" /><inkscape:path-effect effect="spiro" id="path-effect1047" is_visible="true" lpeversion="1" /></svg:defs>
 
<svg:g id="path1006-5-6"><svg:path style="color:#000000;fill:#1a5fb4;fill-rule:nonzero;stroke-linecap:round;stroke-linejoin:round;-inkscape-stroke:none;paint-order:fill stroke markers" d="M 119.41797,-187.05859 C 99.37347199999999,-187.40336000000002 79.928744,-182.66680000000002 62.507811999999994,-174.15625 C 45.13282699999999,-165.66814 30.13414699999999,-153.63128 17.921874999999993,-139.50585999999998 C -6.4851279000000055,-111.27530999999999 -18.788138000000004,-76.14745599999998 -22.613281000000008,-41.619140999999985 C -25.19799100000001,-18.287810999999984 -24.141770000000008,6.2126479000000145 -17.271484000000008,30.154297000000014 C -10.366994000000009,54.215145000000014 2.3694334999999924,77.22815600000001 21.624999999999993,95.34179700000001 C 38.011579,110.75659000000002 58.08019999999999,121.58451000000001 79.70898399999999,127.02734000000001 C 101.31887999999998,132.46543 123.88087999999999,132.38797 145.32811999999998,127.10354000000001 C 171.56498,120.63895000000001 195.19403,106.62854000000002 213.63477,87.378926 C 233.25813,66.89481500000001 246.08737,41.55040900000001 252.58594,15.119161000000005 C 262.08108,-23.499894999999995 258.08594999999997,-64.540065 241.51367,-100.6074 C 231.06559,-123.34622999999999 215.49223,-144.41803 194.47460999999998,-160.34959 C 173.32073999999997,-176.38443 147.27508999999998,-186.57943 119.41796999999998,-187.05857 L 119.41797,-187.05859 M 118.38672,-127.06836000000001 C 131.90088,-126.83592000000002 146.40962,-121.49352000000002 158.23047,-112.53320000000001 C 170.18757,-103.46961 180.16645,-90.414231 186.99414,-75.554687 C 191.5668,-65.602902 194.59022,-54.859488 196.19726999999997,-43.892578 C 192.36952999999997,-53.861716 186.68299999999996,-63.018629000000004 179.47851999999997,-70.84375 C 164.28109999999998,-87.350358 144.24080999999998,-96.645637 123.79882999999998,-99.847656 C 104.22901999999998,-102.91306 83.24776599999998,-100.56269 64.26367199999999,-90.480469 C 59.54300699999999,-87.973381 55.06092599999999,-85.021124 50.88085899999999,-81.681641 C 54.426118999999986,-88.443217 58.531812999999985,-94.738265 63.310546999999985,-100.26563 C 70.60976899999999,-108.70833 79.41517299999998,-115.63905 88.84570299999999,-120.24609000000001 C 98.23028699999999,-124.83069 108.60244999999999,-127.23665000000001 118.38671999999998,-127.06836000000001 L 118.38672,-127.06836000000001 M 108.45116999999999,-41.054687000000015 C 110.45411999999999,-41.04538700000001 112.48772999999998,-40.88960700000001 114.51366999999999,-40.57226600000001 C 122.94622,-39.25139700000001 130.73924,-35.19792600000001 135.33789,-30.203125000000014 C 139.65888999999999,-25.509889000000015 141.94487999999998,-18.419564000000015 141.4082,-13.740234000000015 C 140.85219,-8.892387000000015 136.64328,-2.2234020000000143 131.0957,1.210937499999984 C 125.16270999999999,4.883875199999984 116.14846,6.576223799999984 107.55859,5.177734399999984 C 98.726564,3.7398189 90.463435,-0.97839441 86.0,-6.5957031 C 83.74266,-9.4366039 82.144822,-12.756772 81.423828,-15.833984 C 80.712126,-18.871539 80.778155,-22.127122999999997 81.458988,-24.693359 C 82.621285,-29.07438 86.97346800000001,-34.602994 92.406254,-37.488281 C 96.722142,-39.780397 102.442334,-41.082608 108.45117400000001,-41.054687 L 108.45116999999999,-41.054687000000015 M 165.30077999999997,50.408202999999986 C 155.39650999999998,59.16859299999999 143.46482999999998,65.76771499999998 130.97265999999996,68.84570299999999 C 118.99852999999996,71.79604899999998 106.12188999999996,71.80377499999999 94.35156199999996,68.84180299999998 C 82.60012699999996,65.88457999999999 71.42107399999996,59.81033999999998 62.73632799999996,51.640630999999985 C 62.60050099999996,51.512858999999985 62.48849399999996,51.349853999999986 62.353515999999956,51.220708999999985 C 73.33263399999996,57.961359999999985 85.47913799999995,62.37363399999998 97.91601599999996,64.39844299999999 C 119.49818999999995,67.91216999999999 142.61897999999997,64.64433799999999 162.67772999999994,52.226567999999986 C 163.58391999999995,51.665573999999985 164.41667999999993,51.00147099999999 165.30077999999995,50.408208999999985 L 165.30077999999997,50.408202999999986" id="path13408" /></svg:g></svg:svg>

<svg:svg xmlns:cc="http://creativecommons.org/ns#" xmlns:dc="http://purl.org/dc/elements/1.1/" xmlns:inkscape="http://www.inkscape.org/namespaces/inkscape" xmlns:rdf="http://www.w3.org/1999/02/22-rdf-syntax-ns#" xmlns:sodipodi="http://sodipodi.sourceforge.net/DTD/sodipodi-0.dtd" xmlns:svg="http://www.w3.org/2000/svg" xml:space="preserve" width="1000" height="1000" version="1.1" style="clip-rule:evenodd;fill-rule:evenodd;image-rendering:optimizeQuality;shape-rendering:geometricPrecision;text-rendering:geometricPrecision" viewBox="0 0 1000 1000" id="svg10" sodipodi:docname="ring.svg" inkscape:version="1.1.1 (3bf5ae0d25, 2021-09-20)"><svg:text text-anchor="middle" x="113.15622" y="104.99826" id="top" inkscape:label="top" style="clip-rule:evenodd;fill-rule:evenodd;image-rendering:optimizeQuality;shape-rendering:geometricPrecision;text-rendering:geometricPrecision">✛</svg:text><svg:metadata id="metadata14"><rdf:RDF><cc:Work rdf:about=""><dc:format>image/svg+xml</dc:format><dc:type rdf:resource="http://purl.org/dc/dcmitype/StillImage" /><dc:title /></cc:Work></rdf:RDF></svg:metadata><sodipodi:namedview pagecolor="#ffffff" bordercolor="#666666" borderopacity="1" objecttolerance="10" gridtolerance="10" guidetolerance="10" inkscape:pageopacity="0" inkscape:pageshadow="2" inkscape:window-width="1920" inkscape:window-height="1009" id="namedview12" showgrid="false" inkscape:zoom="0.84890884" inkscape:cx="198.4901" inkscape:cy="54.187208" inkscape:window-x="0" inkscape:window-y="60" inkscape:window-maximized="1" inkscape:current-layer="g874" showguides="true" inkscape:guide-bbox="true" inkscape:document-rotation="0" inkscape:pagecheckerboard="0"><sodipodi:guide position="0,1000" orientation="0,1" id="guide16" inkscape:label="" inkscape:locked="true" inkscape:color="rgb(0,0,255)" /><sodipodi:guide position="1763.3122,2036.1693" orientation="1000,0" id="guide18" /><sodipodi:guide position="0,200" orientation="0,1" id="guide20" inkscape:label="base" inkscape:locked="true" inkscape:color="rgb(0,0,255)" /><inkscape:grid type="xygrid" id="grid24" originx="-473.37552" originy="-489.69235" /><sodipodi:guide position="0,0" orientation="0,1" id="guide34" inkscape:label="bottom" inkscape:locked="true" inkscape:color="rgb(0,0,255)" /><sodipodi:guide position="225.05109,1693.3186" orientation="0,1" id="guide44" inkscape:label="" inkscape:locked="false" inkscape:color="rgb(0,0,255)" /><sodipodi:guide position="0,900" orientation="0,1" id="guide46" inkscape:label="" inkscape:locked="true" inkscape:color="rgb(0,0,255)" /><sodipodi:guide position="227.46909,957.04245" orientation="1,0" id="guide841" inkscape:label="width" />    </sodipodi:namedview>
 <svg:defs id="defs4"><inkscape:path-effect effect="spiro" id="path-effect909" is_visible="true" lpeversion="1" /><inkscape:path-effect effect="spiro" id="path-effect869" is_visible="true" lpeversion="1" /><inkscape:path-effect effect="spiro" id="path-effect881" is_visible="true" lpeversion="1" /><inkscape:path-effect effect="spiro" id="path-effect862" is_visible="true" lpeversion="1" /><inkscape:path-effect effect="spiro" id="path-effect851" is_visible="true" lpeversion="1" />
  <svg:style type="text/css" id="style2">
   
    .fil0 {fill:#EF7F1A;fill-rule:nonzero}
   
  </svg:style>
 <inkscape:path-effect effect="spiro" id="path-effect1214" is_visible="true" lpeversion="1" /><inkscape:path-effect effect="spiro" id="path-effect1195" is_visible="true" lpeversion="1" /><inkscape:path-effect effect="spiro" id="path-effect992" is_visible="true" lpeversion="1" /><inkscape:path-effect effect="spiro" id="path-effect1060" is_visible="true" lpeversion="1" /><inkscape:path-effect effect="spiro" id="path-effect1047" is_visible="true" lpeversion="1" /></svg:defs>
 
<svg:g id="path1006-5-6"><svg:path style="color:#000000;fill:#1a5fb4;fill-rule:nonzero;stroke-linecap:round;stroke-linejoin:round;-inkscape-stroke:none" d="m 119.41797,-187.05859 c -20.044498,-0.34477 -39.489226,4.39179 -56.910158,12.90234 -17.374985,8.48811 -32.373665,20.52497 -44.585937,34.65039 -24.4070029,28.23055 -36.710013,63.358404 -40.535156,97.886719 -2.58471,23.33133 -1.528489,47.8317889 5.341797,71.773438 6.90449,24.060848 19.6409175,47.073859 38.896484,65.1875 16.386579,15.414793 36.4552,26.242713 58.083984,31.685543 21.609896,5.43809 44.171896,5.36063 65.619136,0.0762 26.23686,-6.46459 49.86591,-20.475 68.30665,-39.724614 19.62336,-20.484111 32.4526,-45.828517 38.95117,-72.259765 9.49514,-38.619056 5.50001,-79.659226 -11.07227,-115.726561 -10.44808,-22.73883 -26.02144,-43.81063 -47.03906,-59.74219 -21.15387,-16.03484 -47.19952,-26.22984 -75.05664,-26.70898 z m -1.03125,59.99023 c 13.51416,0.23244 28.0229,5.57484 39.84375,14.53516 11.9571,9.06359 21.93598,22.118969 28.76367,36.978513 4.57266,9.951785 7.59608,20.695199 9.20313,31.662109 -3.82774,-9.969138 -9.51427,-19.126051 -16.71875,-26.951172 -15.19742,-16.506608 -35.23771,-25.801887 -55.67969,-29.003906 -19.56981,-3.065404 -40.551064,-0.715034 -59.535158,9.367187 -4.720665,2.507088 -9.202746,5.459345 -13.382813,8.798828 3.54526,-6.761576 7.650954,-13.056624 12.429688,-18.583989 7.299222,-8.4427 16.104626,-15.37342 25.535156,-19.98046 9.384584,-4.5846 19.756747,-6.99056 29.541017,-6.82227 z m -9.93555,86.013673 c 2.00295,0.0093 4.03656,0.16508 6.0625,0.482421 8.43255,1.320869 16.22557,5.37434 20.82422,10.369141 4.321,4.693236 6.60699,11.783561 6.07031,16.462891 -0.55601,4.847847 -4.76492,11.516832 -10.3125,14.9511715 -5.93299,3.6729377 -14.94724,5.3652863 -23.53711,3.9667969 C 98.726564,3.7398189 90.463435,-0.97839441 86,-6.5957031 c -2.25734,-2.8409008 -3.855178,-6.1610689 -4.576172,-9.2382809 -0.711702,-3.037555 -0.645673,-6.293139 0.03516,-8.859375 1.162297,-4.381021 5.51448,-9.909635 10.947266,-12.794922 4.315888,-2.292116 10.03608,-3.594327 16.04492,-3.566406 z m 56.84961,91.46289 c -9.90427,8.76039 -21.83595,15.359512 -34.32812,18.4375 -11.97413,2.950346 -24.85077,2.958072 -36.621098,-0.0039 -11.751435,-2.957223 -22.930488,-9.031463 -31.615234,-17.201172 -0.135827,-0.127772 -0.247834,-0.290777 -0.382812,-0.419922 10.979118,6.740651 23.125622,11.152925 35.5625,13.177734 21.582174,3.513727 44.702964,0.245895 64.761714,-12.171875 0.90619,-0.560994 1.73895,-1.225097 2.62305,-1.818359 z" id="path13372" /></svg:g></svg:svg>
